round/svg/wb_iridescent.svg

<svg xmlns="http://www.w3.org/2000/svg" width="24" height="24"><path fill="none" d="M0 0h24v24H0V0z"/><g fill="currentColor"><path d="M6 15h12c.55 0 1-.45 1-1v-3.95c0-.55-.45-1-1-1H6c-.55 0-1 .45-1 1V14c0 .55.45 1 1 1zm5-13v1.05c0 .55.45.95 1 .95s1-.4 1-.95V2c0-.55-.45-1-1-1s-1 .45-1 1zm7.34 2.3l-.38.38a.996.996 0 1 0 1.41 1.41l.38-.38a.996.996 0 1 0-1.41-1.41zM13 22v-.96c0-.55-.45-1-1-1s-1 .45-1 1V22c0 .55.45 1 1 1s1-.45 1-1zm6.74-3.61l-.39-.39a.996.996 0 1 0-1.41 1.41l.38.39c.39.39 1.02.39 1.41 0l.01-.01a.984.984 0 0 0 0-1.4zM4.25 5.71l.39.39a.996.996 0 1 0 1.41-1.41l-.39-.39a.996.996 0 0 0-1.41 0c-.38.39-.38 1.03 0 1.41zm1.42 14.08l.38-.38A.996.996 0 1 0 4.64 18l-.38.38a.996.996 0 1 0 1.41 1.41z"/></g></svg>

<?xml version="1.0" encoding="utf-8"?>
<!-- Generator: Adobe Illustrator 19.1.0, SVG Export Plug-In . SVG Version: 6.00 Build 0)  -->
<svg version="1.1" xmlns="http://www.w3.org/2000/svg" xmlns:xlink="http://www.w3.org/1999/xlink" x="0px" y="0px" width="24px"
	 height="24px" viewBox="0 0 24 24" enable-background="new 0 0 24 24" xml:space="preserve">
<g id="Bounding_Boxes">
	<g id="ui_x5F_spec_x5F_header_copy_2">
	</g>
	<path fill="none" d="M0,0h24v24H0V0z"/>
</g>
<g id="Rounded" fill="currentColor">
	<g id="ui_x5F_spec_x5F_header_copy_6">
	</g>
	<path d="M6,15h12c0.55,0,1-0.45,1-1v-3.95c0-0.55-0.45-1-1-1H6c-0.55,0-1,0.45-1,1V14C5,14.55,5.45,15,6,15z M11,2v1.05
		C11,3.6,11.45,4,12,4H12c0.55,0,1-0.4,1-0.95V2c0-0.55-0.45-1-1-1H12C11.45,1,11,1.45,11,2z M18.34,4.3l-0.38,0.38
		c-0.39,0.39-0.39,1.02,0,1.41l0,0c0.39,0.39,1.02,0.39,1.41,0l0.38-0.38c0.39-0.39,0.39-1.02,0-1.41l0,0
		C19.36,3.91,18.73,3.91,18.34,4.3z M13,22v-0.96c0-0.55-0.45-1-1-1H12c-0.55,0-1,0.45-1,1V22c0,0.55,0.45,1,1,1H12
		C12.55,23,13,22.55,13,22z M19.74,18.39L19.35,18c-0.39-0.39-1.02-0.39-1.41,0l0,0c-0.39,0.39-0.39,1.02,0,1.41l0.38,0.39
		c0.39,0.39,1.02,0.39,1.41,0l0.01-0.01C20.13,19.41,20.13,18.77,19.74,18.39z M4.25,5.71L4.64,6.1c0.39,0.39,1.02,0.39,1.41,0l0,0
		c0.39-0.39,0.39-1.02,0-1.41L5.66,4.3c-0.39-0.39-1.02-0.39-1.41,0l0,0C3.87,4.69,3.87,5.33,4.25,5.71z M5.67,19.79l0.38-0.38
		c0.39-0.39,0.39-1.02,0-1.41l0,0c-0.39-0.39-1.02-0.39-1.41,0l-0.38,0.38c-0.39,0.39-0.39,1.02,0,1.41l0,0
		C4.64,20.18,5.28,20.18,5.67,19.79z"/>
</g>
</svg>
